src/qt/rpdchain/res/img/ic-nav-master-hover.svg

<?xml version="1.0" encoding="UTF-8"?>
<svg width="24px" height="30px" viewBox="0 0 24 30" version="1.1" xmlns="http://www.w3.org/2000/svg" xmlns:xlink="http://www.w3.org/1999/xlink">
    <!-- Generator: Sketch 52.6 (67491) - http://www.bohemiancoding.com/sketch -->
    <title>Master Active</title>
    <desc>Created with Sketch.</desc>
    <g id="Master-Active" stroke="none" stroke-width="1" fill="none" fill-rule="evenodd">
        <g id="Group-2" transform="translate(1.000000, 7.000000)" fill="#FFFFFF">
            <path d="M20.4074761,15.3510563 C20.7959509,14.2693875 20.9932272,13.1283659 20.9904761,11.9790563 C20.9667232,7.59826215 18.1142387,3.73511844 13.9344761,2.42305633 C13.6586172,1.01541681 12.4248914,-1.77635684e-15 10.9904761,-1.77635684e-15 C9.55606085,-1.77635684e-15 8.32233506,1.01541681 8.04647613,2.42305633 C5.43779562,3.22781817 3.27120239,5.06352412 2.04895358,7.50462293 C0.82670477,9.94572175 0.654939474,12.7802304 1.57347613,15.3510563 C0.536977576,15.9091966 -0.0758995445,17.023265 0.00756246666,18.1975238 C0.0910244778,19.3717827 0.855312151,20.3879672 1.9603332,20.7938962 C3.06535425,21.1998251 4.30571331,20.9200466 5.12947613,20.0790563 C8.62508464,22.6157834 13.3558676,22.6157834 16.8514761,20.0790563 C17.6740128,20.9257556 18.9173887,21.2098999 20.0260559,20.8045316 C21.134723,20.3991634 21.9015673,19.380011 21.9839578,18.2024381 C22.0663484,17.0248652 21.4488936,15.9088583 20.4074761,15.3530563 L20.4074761,15.3510563 Z M10.9904761,1.97905633 C11.5427609,1.97905633 11.9904761,2.42677158 11.9904761,2.97905633 C11.9904761,3.53134108 11.5427609,3.97905633 10.9904761,3.97905633 C10.4381914,3.97905633 9.99047613,3.53134108 9.99047613,2.97905633 C9.99047613,2.42677158 10.4381914,1.97905633 10.9904761,1.97905633 Z M2.99047613,18.9790563 C2.43819138,18.9790563 1.99047613,18.5313411 1.99047613,17.9790563 C1.99047613,17.4267716 2.43819138,16.9790563 2.99047613,16.9790563 C3.54276088,16.9790563 3.99047613,17.4267716 3.99047613,17.9790563 C3.99047613,18.5313411 3.54276088,18.9790563 2.99047613,18.9790563 Z M10.9904761,19.9790563 C9.16167556,19.9774289 7.38886578,19.3480144 5.96847613,18.1960563 C5.96847613,18.1230563 5.99047613,18.0530563 5.99047613,17.9790563 C5.98962097,16.5625961 4.99815745,15.3397355 3.61247613,15.0460563 C2.75768623,13.0113046 2.7848975,10.7131993 3.68762691,8.69925797 C4.59035632,6.68531661 6.28777453,5.13586515 8.37547613,4.42005633 C8.89501726,5.37979995 9.89863255,5.97774055 10.9899761,5.97774055 C12.0813197,5.97774055 13.084935,5.37979995 13.6044761,4.42005633 C16.8161933,5.54917859 18.9719561,8.57469133 18.9904761,11.9790563 C18.9894629,13.0326108 18.7779916,14.0753477 18.3684761,15.0460563 C16.9827948,15.3397355 15.9913313,16.5625961 15.9904761,17.9790563 C15.9904761,18.0530563 16.0074761,18.1230563 16.0124761,18.1960563 C14.592167,19.3481579 12.8193047,19.9775911 10.9904761,19.9790563 Z M18.9904761,18.9790563 C18.4381914,18.9790563 17.9904761,18.5313411 17.9904761,17.9790563 C17.9904761,17.4267716 18.4381914,16.9790563 18.9904761,16.9790563 C19.5427609,16.9790563 19.9904761,17.4267716 19.9904761,17.9790563 C19.9904761,18.5313411 19.5427609,18.9790563 18.9904761,18.9790563 Z" id="Path_18873" fill-rule="nonzero"></path>
            <polygon id="Path_18874" points="15.9904761 15.9790563 15.9904761 7.62805633 10.9904761 11.6910563 5.99047613 7.62805633 5.99047613 15.9790563 7.99047613 15.9790563 7.99047613 11.8300563 10.9904761 14.2680563 13.9904761 11.8310563 13.9904761 15.9790563"></polygon>
        </g>
    </g>
</svg>

<?xml version="1.0" encoding="utf-8"?>
<!-- Generator: Adobe Illustrator 28.0.0, SVG Export Plug-In . SVG Version: 6.00 Build 0)  -->
<svg version="1.1" id="Layer_1" xmlns="http://www.w3.org/2000/svg" xmlns:xlink="http://www.w3.org/1999/xlink" x="0px" y="0px"
	 viewBox="0 0 24 30" style="enable-background:new 0 0 24 30;" xml:space="preserve">
<style type="text/css">
	.st0{fill:#FF5533;}
	.st1{fill-rule:evenodd;clip-rule:evenodd;fill:#FF5533;}
</style>
<g id="Master-Active">
	<g id="Group-2" transform="translate(1.000000, 7.000000)">
		<path id="Path_18873" class="st0" d="M20.4,15.4c0.4-1.1,0.6-2.2,0.6-3.4c0-4.4-2.9-8.2-7.1-9.6C13.7,1,12.4,0,11,0S8.3,1,8,2.4
			C5.4,3.2,3.3,5.1,2,7.5s-1.4,5.3-0.5,7.8c-1,0.6-1.6,1.7-1.6,2.8c0.1,1.2,0.8,2.2,2,2.6c1.1,0.4,2.3,0.1,3.2-0.7
			c3.5,2.5,8.2,2.5,11.7,0c0.8,0.8,2.1,1.1,3.2,0.7c1.1-0.4,1.9-1.4,2-2.6C22.1,17,21.4,15.9,20.4,15.4L20.4,15.4z M11,2
			c0.6,0,1,0.4,1,1s-0.4,1-1,1c-0.6,0-1-0.4-1-1S10.4,2,11,2z M3,19c-0.6,0-1-0.4-1-1c0-0.6,0.4-1,1-1s1,0.4,1,1C4,18.5,3.5,19,3,19
			z M11,20c-1.8,0-3.6-0.6-5-1.8c0-0.1,0-0.1,0-0.2c0-1.4-1-2.6-2.4-2.9c-0.9-2-0.8-4.3,0.1-6.3s2.6-3.6,4.7-4.3C8.9,5.4,9.9,6,11,6
			s2.1-0.6,2.6-1.6C16.8,5.5,19,8.6,19,12c0,1.1-0.2,2.1-0.6,3.1C17,15.3,16,16.6,16,18c0,0.1,0,0.1,0,0.2C14.6,19.3,12.8,20,11,20z
			 M19,19c-0.6,0-1-0.4-1-1c0-0.6,0.4-1,1-1c0.6,0,1,0.4,1,1C20,18.5,19.5,19,19,19z"/>
		<polygon id="Path_18874" class="st1" points="16,16 16,7.6 11,11.7 6,7.6 6,16 8,16 8,11.8 11,14.3 14,11.8 14,16 		"/>
	</g>
</g>
</svg>
